packages/kaspersky-hexa-ui-icons/src/iconsSVGs/24/Ups.svg

<svg width="24" height="24" viewBox="0 0 24 24" fill="none" xmlns="http://www.w3.org/2000/svg">
<path d="M12 6C12.5523 6 13 6.44772 13 7V11C13 11.5523 12.5523 12 12 12C11.4477 12 11 11.5523 11 11V7C11 6.44772 11.4477 6 12 6Z" fill="black"/>
<path d="M9.68763 9.94491C10.0338 9.51456 9.96551 8.88508 9.53516 8.53894C9.10481 8.19279 8.47534 8.26105 8.12919 8.6914C7.42256 9.56993 7 10.6933 7 11.9122C7 14.7015 9.21821 17 12 17C14.7818 17 17 14.7015 17 11.9122C17 10.6933 16.5774 9.56993 15.8708 8.6914C15.5247 8.26105 14.8952 8.19279 14.4648 8.53894C14.0345 8.88508 13.9662 9.51456 14.3124 9.94491C14.741 10.4778 15 11.1614 15 11.9122C15 13.6381 13.6365 15 12 15C10.3635 15 9 13.6381 9 11.9122C9 11.1614 9.259 10.4778 9.68763 9.94491Z" fill="black"/>
<path fill-rule="evenodd" clip-rule="evenodd" d="M2 6C2 3.79086 3.79086 2 6 2H18C20.2091 2 22 3.79086 22 6V18C22 20.2091 20.2091 22 18 22H6C3.79086 22 2 20.2091 2 18V6ZM6 4C4.89543 4 4 4.89543 4 6V18C4 19.1046 4.89543 20 6 20H18C19.1046 20 20 19.1046 20 18V6C20 4.89543 19.1046 4 18 4H6Z" fill="black"/>
</svg>

<svg xmlns="http://www.w3.org/2000/svg" width="24" height="24" fill="none" viewBox="0 0 24 24"><path fill="#000" fill-rule="evenodd" d="M6 2C3.7909 2 2 3.7909 2 6v12c0 2.2091 1.7909 4 4 4h12c2.2091 0 4-1.7909 4-4V6c0-2.2091-1.7909-4-4-4zM4 6c0-1.1046.8954-2 2-2h12c1.1046 0 2 .8954 2 2v12c0 1.1046-.8954 2-2 2H6c-1.1046 0-2-.8954-2-2zm8 0c.5523 0 1 .4477 1 1v4c0 .5523-.4477 1-1 1s-1-.4477-1-1V7c0-.5523.4477-1 1-1M9.6876 9.9449c.3462-.4303.278-1.0598-.1524-1.406s-1.0599-.2778-1.406.1525C7.4226 9.5699 7 10.6933 7 11.9122 7 14.7015 9.2182 17 12 17s5-2.2985 5-5.0878c0-1.2189-.4226-2.3423-1.1292-3.2208-.3461-.4303-.9756-.4986-1.406-.1525-.4303.3462-.4986.9757-.1524 1.406.4286.5329.6876 1.2165.6876 1.9673C15 13.6381 13.6365 15 12 15s-3-1.3619-3-3.0878c0-.7508.259-1.4344.6876-1.9673"/></svg>
